src/assets/outline/GridEdit.svg

<svg width="24" height="24" viewBox="0 0 24 24"  xmlns="http://www.w3.org/2000/svg">
<path d="M10 22.75H9C3.57 22.75 1.25 20.43 1.25 15V9C1.25 3.57 3.57 1.25 9 1.25H15C20.43 1.25 22.75 3.57 22.75 9V11C22.75 11.41 22.41 11.75 22 11.75C21.59 11.75 21.25 11.41 21.25 11V9C21.25 4.39 19.61 2.75 15 2.75H9C4.39 2.75 2.75 4.39 2.75 9V15C2.75 19.61 4.39 21.25 9 21.25H10C10.41 21.25 10.75 21.59 10.75 22C10.75 22.41 10.41 22.75 10 22.75Z" />
<path d="M22.0002 9.25H2.03027C1.62027 9.25 1.28027 8.91 1.28027 8.5C1.28027 8.09 1.62027 7.75 2.03027 7.75H22.0002C22.4102 7.75 22.7502 8.09 22.7502 8.5C22.7502 8.91 22.4102 9.25 22.0002 9.25Z" />
<path d="M12.0002 16.25H2.03027C1.62027 16.25 1.28027 15.91 1.28027 15.5C1.28027 15.09 1.62027 14.75 2.03027 14.75H12.0002C12.4102 14.75 12.7502 15.09 12.7502 15.5C12.7502 15.91 12.4102 16.25 12.0002 16.25Z" />
<path d="M8.50977 22.7395C8.09977 22.7395 7.75977 22.3995 7.75977 21.9895V2.01953C7.75977 1.60953 8.09977 1.26953 8.50977 1.26953C8.91977 1.26953 9.25977 1.60953 9.25977 2.01953V21.9895C9.25977 22.3995 8.92977 22.7395 8.50977 22.7395Z" />
<path d="M15.5098 12.7395C15.0998 12.7395 14.7598 12.3995 14.7598 11.9895V2.01953C14.7598 1.60953 15.0998 1.26953 15.5098 1.26953C15.9198 1.26953 16.2598 1.60953 16.2598 2.01953V11.9895C16.2598 12.3995 15.9298 12.7395 15.5098 12.7395Z" />
<path d="M14.7601 22.7502C14.3401 22.7502 13.9601 22.6001 13.6801 22.3201C13.3401 21.9901 13.1901 21.5002 13.2701 20.9902L13.5001 19.4002C13.5501 19.0202 13.7801 18.5602 14.0601 18.2802L18.2101 14.1302C18.7501 13.5902 19.2801 13.3102 19.8401 13.2502C20.5301 13.1802 21.2201 13.4802 21.8701 14.1302C22.5201 14.7802 22.8201 15.4602 22.7501 16.1602C22.7001 16.7202 22.4101 17.2502 21.8701 17.7902L17.7201 21.9401C17.4501 22.2101 16.9901 22.4402 16.6001 22.5002L15.0201 22.7302C14.9301 22.7402 14.8401 22.7502 14.7601 22.7502ZM20.0201 14.7502C20.0101 14.7502 19.9901 14.7502 19.9801 14.7502C19.7801 14.7702 19.5401 14.9201 19.2601 15.2001L15.1101 19.3502C15.0601 19.4002 14.9901 19.5502 14.9801 19.6202L14.7501 21.2101L16.3801 21.0302C16.4501 21.0202 16.6001 20.9402 16.6501 20.9002L20.8001 16.7502C21.0801 16.4702 21.2301 16.2302 21.2501 16.0302C21.2701 15.8002 21.1201 15.5301 20.8001 15.2101C20.5001 14.9001 20.2401 14.7502 20.0201 14.7502Z" />
<path d="M20.74 18.6101C20.67 18.6101 20.61 18.6001 20.54 18.5801C19.04 18.1601 17.84 16.9601 17.42 15.4601C17.31 15.0601 17.5401 14.6502 17.9401 14.5402C18.3501 14.4302 18.75 14.6602 18.86 15.0602C19.14 16.0602 19.9401 16.8601 20.9401 17.1401C21.3401 17.2501 21.5701 17.6702 21.4601 18.0602C21.3701 18.4002 21.06 18.6101 20.74 18.6101Z" />
</svg>

<?xml version="1.0" encoding="UTF-8"?>
<svg width="24" height="24" viewBox="0 0 24 24" xmlns="http://www.w3.org/2000/svg">
 <path d="m10 22.75h-1c-5.43 0-7.75-2.32-7.75-7.75v-6c0-5.43 2.32-7.75 7.75-7.75h6c5.43 0 7.75 2.32 7.75 7.75v2c0 0.41-0.34 0.75-0.75 0.75s-0.75-0.34-0.75-0.75v-2c0-4.61-1.64-6.25-6.25-6.25h-6c-4.61 0-6.25 1.64-6.25 6.25v6c0 4.61 1.64 6.25 6.25 6.25h1c0.41 0 0.75 0.34 0.75 0.75s-0.34 0.75-0.75 0.75z"/>
 <path d="m22 9.25h-19.97c-0.41 0-0.75-0.34-0.75-0.75s0.34-0.75 0.75-0.75h19.97c0.41 0 0.75 0.34 0.75 0.75s-0.34 0.75-0.75 0.75z"/>
 <path d="m12 16.25h-9.9699c-0.41 0-0.75-0.34-0.75-0.75s0.34-0.75 0.75-0.75h9.9699c0.41 0 0.75 0.34 0.75 0.75s-0.34 0.75-0.75 0.75z"/>
 <path d="m8.5098 22.74c-0.41 0-0.75-0.34-0.75-0.75v-19.97c0-0.41 0.34-0.75 0.75-0.75s0.75 0.34 0.75 0.75v19.97c0 0.41-0.33 0.75-0.75 0.75z"/>
 <path d="m15.51 12.74c-0.41 0-0.75-0.34-0.75-0.75v-9.97c0-0.41 0.34-0.75 0.75-0.75s0.75 0.34 0.75 0.75v9.97c0 0.41-0.33 0.75-0.75 0.75z"/>
 <path d="m14.76 22.75c-0.42 0-0.8-0.1501-1.08-0.4301-0.34-0.33-0.49-0.8199-0.41-1.3299l0.23-1.59c0.05-0.38 0.28-0.84 0.56-1.12l4.15-4.15c0.54-0.54 1.07-0.82 1.63-0.88 0.69-0.07 1.38 0.23 2.03 0.88s0.95 1.33 0.88 2.03c-0.05 0.56-0.34 1.09-0.88 1.63l-4.15 4.1499c-0.27 0.27-0.73 0.5001-1.12 0.5601l-1.58 0.23c-0.09 0.01-0.18 0.02-0.26 0.02zm5.26-8h-0.04c-0.2 0.02-0.44 0.1699-0.72 0.4499l-4.15 4.1501c-0.05 0.05-0.12 0.2-0.13 0.27l-0.23 1.5899 1.63-0.1799c0.07-0.01 0.22-0.09 0.27-0.13l4.15-4.15c0.28-0.28 0.43-0.52 0.45-0.72 0.02-0.23-0.13-0.5001-0.45-0.8201-0.3-0.31-0.56-0.4599-0.78-0.4599z"/>
 <path d="m20.74 18.61c-0.07 0-0.13-0.01-0.2-0.03-1.5-0.42-2.7-1.62-3.12-3.12-0.11-0.4 0.1201-0.8099 0.5201-0.9199 0.41-0.11 0.8099 0.12 0.9199 0.52 0.28 1 1.0801 1.7999 2.0801 2.0799 0.4 0.11 0.63 0.5301 0.52 0.9201-0.09 0.34-0.4001 0.5499-0.7201 0.5499z"/>
</svg>
